X: 14
T: Lad O'Beirne's
C: Lad O'Beirne
Z: Fernando Durbán Galnares
S: https://thesession.org/tunes/406#setting50714
R: reel
M: 4/4
L: 1/8
K: Gmaj
|:"G"DGGF G2BG|"Em7"AcBG "D"AGEG|"G"DGGF "Em"GABd|"Am7"edBd "D"edge|
"Em"dBBB GBdB|"C"cEEE "D"GEDB,|"G"DEGA BABc|1"D"dBAc "G"BGGE:|2"D"dBAc "G"BGGA||
|:"G"Bdd^c d2 Bd|"Am7"edgd "D"edge|"Em"dBBB GBdB|"C"cEEE "D"GEDA|
"Bm"Bdd^c d2ef|"C"g2 fa "D"gedB|"G"DEGA BABc|1"D"dBAc "G"BGGA:|2"D"dBAc "G"BGGF||

